!!!!SEGMENT: pl-wumfc--r245--001-003_paderewski-ignacy-jan--stara-suita-op-3-aria.krn
!!!cenid: 18xx:3139
!!!COM: Paderewski, Ignacy Jan
!!!COM-rismid: pe30029943
!!!CDT: 1860/11/18-1941/06/29
!!!CNT: Polish
!!!OPR: Stara suita op. 3
!!!OTL: Aria
!!!OMV: 003
!!!PDT:
!!!AGN:
!!!SMS-siglum: PL-Wumfc
!!!SMS-shelfmark: R245
!!!SMS-shelfwork: 001-003 M
!!!SMS-variant:
!!!SMS-altvar:
!!!NIFC-rismid: 1001155838
!!!URL-scan: http://repozytorium.nifc.pl/skany/pl-wumfc--r245
!!!ONB-nifc: UWAGA: części Suity: 1.Preludio, 2. Intermezzo, 3. Aria, 4. Fuga
!!!key: F
**kern	**kern	**dynam
*part1	*part1	*part1
*staff2	*staff1	*
*I"Fortepian	*I"Fortepian	*
*Ipiano	*Ipiano	*
*ICklav	*ICklav	*
*IGsolo	*IGsolo	*
*clefF4	*clefG2	*
*k[b-]	*k[b-]	*
*F:	*F:	*
*M3/4	*M3/4	*
=1	=1	=1
*all\right	*all\right	*
*	*^	*
4r	4r	4f\	.
4D\	(4a/	4f\	.
4C\	4a/	4e\	.
=2	=2	=2	=2
4BB-\	4dd/	4d\	.
4AA\	4cc/	4f\	.
4BB-\	4f/)	4d\	.
=3	=3	=3	=3
4GG\	4b-/	4B-\	.
8AA\L	4a/	8c\L	.
8BB-\J	.	8d\J	.
4C\	8g/L	4e\	.
.	8a/J	.	.
=4	=4	=4	=4
*	*	*2\right	*
(4FF\	[2.a/	2.f\	<
4C\	.	.	.
4F\	.	.	[
=5	=5	=5	=5
4E\	4a/]	4g\	>
4D\	(4a/	4f\	.
4C\)	4a/	4e\	]
!!LO:LB:g=original
=6	=6	=6	=6
!	!LO:TX:b:t=poco rit.	!	!
4BB-\	4dd/	4d\	.
4AA\	4cc/	4e\	.
4BB-\	4f/)	4d\	.
=7	=7	=7	=7
(4EE\	(4b-/	4d-X\	.
4FF\	4a/	4c\	.
4GG\	4dn/	4B-\	.
=8	=8	=8	=8
2DD;\)	2f;)/	2A\	.
4ryy	4ryy	4ryy	.
=9	=9	=9	=9
4r	(4ff/	4r	p
(4d\	4ff/	4a\	.
4A\	4ee/	4cc\	.
=10	=10	=10	=10
.	8qee/	.	.
4B-\	4.dd/	4f\	.
4G\	.	4b-\	.
.	8cc/L	.	.
4c\)	8dd/	[4b-\	.
.	8ee/J	.	.
!!LO:LB:g=original
=11	=11	=11	=11
*2\right	*	*	*
!	!LO:TX:t=P:problem:brak zakończenia łuku	!	!
2.F\	2ff/)	4b-\]	>
!	!LO:TX:b:t=rit.	!	!
.	.	8a\L	.
.	.	8g\J	]
.	4cc/	4a\	.
=12	=12	=12	=12
4r	(4dd/	4r	.
(4d\	4dd/	4f\	.
4A\	4cc/	4e\	.
=13	=13	=13	=13
.	8qqcc/	.	.
4B-\	4.b-/	4d\	.
4E\	.	4g\	.
.	8a/L	.	.
4A\)	8b-/	[4g\	.
.	8cc/J	.	.
=14	=14	=14	=14
2.D\	2dd/	4g\]	.
!	!LO:TX:b:t=rit.	!	!
.	.	8f\L	.
.	.	8e\J	.
.	4a/)	4f\	.
=15	=15	=15	=15
(4AA\	(4cc/	(4e\	.
.	.	.	p
2D\)	2a/)	2f\)	.
!!LO:LB:g=original
=16	=16	=16	=16
!	!	!	!LO:DY:t=pp.
(4AA\	(4cc/	(4e\	pp
2D\)	2a/)	2f\)	.
=17	=17	=17	=17
4AA\	((8dd/L	4e\	ppp
.	8cc/J	.	.
4D\	4a/)	4f\	.
4GG\	(8cc/L	4d\	.
.	8b-/J)	.	.
=18	=18	=18	=18
2.C\	2.g/)	2.e\	>]
=19	=19	=19	=19
4GG\	(4b-/	4d\	<[
[2C\	[2g^/	[2e\	>]
=20	=20	=20	=20
4C\]	4g/]	4e\]	.
!	!	!	!LO:DY:rj
4GG\	4b-/	4d\	p <
4C\	4a/)	4e\	[[
!!LO:LB:g=original
=21	=21	=21	=21
4FF/	(>4f/	4ryy	.
4D\	4a/	4f\	.
4C\	4a/)	4e\	f
=22	=22	=22	=22
!	!LO:TX:b:t=con forza	!	!
4BB-\	(4dd/	4d\	.
4AA\	4cc/	4f\	.
4BB-\	4f/	4d\	.
=23	=23	=23	=23
(4GG\	4b-/	4B-\	.
8AA\L	4a/	8c\L	.
8BB-\J	.	8d\J	.
4C\)	4g/	4e\	.
.	8qqa/	.	.
=24	=24	=24	=24
(4FF\	[2.a/)	(2.f\	<
4C\	.	.	.
4F\)	.	.	[ >]
!!LO:PB:g=original
=25	=25	=25	=25
!	!	!LO:TX:b:t=P:problem:brak zakończenia łuku	!
4E\	4a/]	4g\)	.
!	!LO:TX:b:t=con forza	!	!
4D\	(4a/	4f\	.
4C\	4a/	4e\	.
=26	=26	=26	=26
4BB-\	4dd/	4d\	.
4AA\	4cc/	4e\	.
4BB-\	4f/	4d\	.
=27	=27	=27	=27
!	!LO:TX:b:t=rall.	!	!
4EE\	4b-/	4d-X\	.
4FF\	4a/	4c\	.
4GG\	4dn/	4B-\	.
=28	=28	=28	=28
!	!LO:TX:a:t=lunga	!	!
2DD;\	2.f;)/	2.A\	.
4ryy	.	.	.
=29	=29	=29	=29
!	!	!	!LO:DY:a
4r	(4ff/	4r	sf
(4d\	4ff/	4a\	.
4A\	4ee/	4cc\	.
!!LO:LB:g=original
=30	=30	=30	=30
.	8qqee/	.	.
4B-\	4.dd/	4f\	.
4G\	.	4b-\	.
.	8cc/L	.	.
4c\	8dd/	4b-\	.
.	8ee/J	.	.
=31	=31	=31	=31
2.F\)	2ff/	4b-\	>
!	!LO:TX:b:t=rit	!	!
.	.	8a\L	.
.	.	8g\J	.
.	4cc/)	4a\	.
.	.	.	]
=32	=32	=32	=32
!	!LO:TX:a:t=à tempo	!	!
!	!LO:TX:b:t=grave	!	!
4r	4dd/	4r	.
(4d\	(4dd/	4f\	.
4A\	4cc/	4e\	>
=33	=33	=33	=33
.	8qqcc/	.	.
4B-\	4.b-/	4d\	.
4E\	.	4g\	.
.	8a/L	.	]
4A\	8b-/	[4g\	.
.	8cc/J	.	.
!!LO:LB:g=original
=34	=34	=34	=34
2.D\)	2dd/	4g\]	.
!	!LO:TX:b:t=rit.	!	!
.	.	8f\L	.
.	.	8e\J	.
.	4a/)	4f\	.
=35	=35	=35	=35
(4AA\	(4cc/	4e\	p
2D\)	2a/)	2f\	.
=36	=36	=36	=36
(4AA\	(4cc/	4e\	pp
2D\)	2a/)	2f\	.
=37	=37	=37	=37
4AA\	((8dd/L	4e\	.
.	8cc/J)	.	ppp
4D\	4a/	4f\	.
4GG\	(8cc/L	4d\	>
.	8b-/J)	.	]
!!LO:LB:g=original
=38	=38	=38	=38
2.C\	2.g/)	2.e\	.
=39	=39	=39	=39
(4GG\	((4b-/	4d\	p
[2C\)	[2g/)	[2e\	<[
=40	=40	=40	=40
4C\]	4g/]	4e\]	>]
4GG\	4b-/	4d\	p
4C\	4a/	4e\	.
.	.	.	>
=41	=41	=41	=41
4FF\	4f/	4f\	]
!	!	!	!LO:DY:t=pianiſs. poſsibile
4D\	(4a/)	4f\	ppp
!LO:TX:b:t=due pedale	!	!	!
4C\	4a/	4e\	.
=42	=42	=42	=42
4BB-\	4dd/	4d\	.
4AA\	4cc/	4f\	.
4BB-\	4f/	4d\	.
!!LO:LB:g=original
=43	=43	=43	=43
4GG\	4b-/	4B-\	.
8AA\L	4a/	8c\L	.
8BB-\J	.	8d\J	.
4C\	4g/	4e\	.
.	8qqa/	.	.
=44	=44	=44	=44
4FF\	[2.a/)	2.f\	<
4C\	.	.	.
4F\	.	.	[
.	.	.	>
=45	=45	=45	=45
4E\	4a/]	4g\	.
4D\	(4a/	4f\	] ppp
4C\	4a/	4e\	.
=46	=46	=46	=46
4BB-\	4dd/	4d\	.
!LO:TX:b:t=morendo	!	!	!
4AA\	4cc/	4f\	.
4BB-\	4f/	4d\	.
!!LO:LB:g=original
=47	=47	=47	=47
!	!LO:TX:b:t=rallentando	!	!
(8GG\L	8b-/L	8B-\L	.
8AA\J	8a/J	8c\J	.
4BB-\	4g/	4d\	.
4C;\	4e;/)	4G\	.
.	8qqf/	.	.
=48	=48	=48	=48
2FF;\)	2.f;/	2.A\	.
4ryy	.	.	.
*	*v	*v	*
==	==	==
*-	*-	*-
!!!system-decoration: {(s1,s2)}
!!!RDF**kern: > = above
!!!ENC: Anastazja Marusiak
!!!END: 2021-11-04
!!!ENC: Marta Lawrence
!!!END: 2021-11-05
